X:1
T:Title
%%score { 1 | 2 }
L:1/8
M:6/8
K:Ab
V:1 treble nm="Grand Piano"
V:2 bass 
V:1
 z3 z2[Q:1/4=69] [CE] | [Ec][Fd][Ec] [EA][EB][EA] | [FA]GF E2 [CE] | [CE][CF][CG] [CA][Fd][Ec] | %4
 [=Dc][DB][DF] B2 E | [Ec][Fd][Ec] [EA][EB][EA] | [DF][FA][FB] [=Ec]2 [EB] | BAF E[Ee][Fd] | %8
[M:5/8] cAB [CA]2 |[M:1/8] [Ee]/[Ee]/ |[M:3/4] [Ee][F=d] [G_d] c2 [CA]/[DB]/ | %11
 [Ec][CA] [CF] [CE]2 [Ec] | cB =A B2 [Fd]/[Fd]/ | [Fd][Ec] [=D_c] [E=c]2 [Ee] | %14
 [Ee][F=d] [G_d] c2 [Ec] | [=Ec][Ec] [EB] [FA]2 [_GA]/[GA]/ |[M:7/8] [FA][=EG][FA] [_Ee]3 A/B/ | %17
[M:5/8] cAB [CA]2 |] %18
V:2
 z3 z2 [A,,A,] | [A,,A,][A,,A,][A,,A,] [A,,A,][C,A,][C,A,] | [D,A,][E,A,E][F,A,D] [A,C]2 [A,,A,] | %3
 [A,,A,][A,,A,][A,,A,] [A,,A,][A,,A,][A,,A,] | [B,,F,][B,,F,][B,,A,] [E,G,D]2 [E,G,] | %5
 [A,,A,][A,,A,][A,,A,] [C,A,][C,A,][C,A,] | [D,A,][D,A,][D,F,] [C,G,]2 [C,G,] | %7
 [D,F,D][D,F,D][D,A,D] [E,A,C][C,A,][D,A,] |[M:5/8] [E,A,E][E,A,C][E,G,D] [A,,A,]2 | %9
[M:1/8] [A,C]/[A,C]/ |[M:3/4] [E,C][E,_C] [E,B,] [A,A]2 [A,,A,]/[A,,A,]/ | %11
 [A,,A,][A,,A,] [A,,A,] [A,,A,]2 [A,,A,] | [E,G,E][E,G,E] [E,_G,E] [E,=G,E]2 [A,,A,]/[A,,A,]/ | %13
 [A,,A,][A,,A,] [A,,A,] [A,,A,]2 [E,C] | [E,C][E,_C] [E,B,] [A,A]2 [A,,A,] | %15
 [C,G,][C,G,] [C,C] [F,C]2 [E,C]/[E,C]/ |[M:7/8] [D,D][D,D][D,D] [C,A,]3 [F,A,D]/[=E,A,=D]/ | %17
[M:5/8] [E,A,E][E,A,C][E,G,D] [A,,E,A,]2 |] %18

